X: 1
T: Keelaghan's Manta
M: 4/4
L: 1/8
R: reel
K: Fmaj
|: AG |FEFA cAfg | afge fcAc | BGGF GDGA | Bdgf ecBG |
FEFA cAfg | afge fcAc | BABG Acdf | ecBG F2 :|
|: cB |AccB c2FG | Acfe fcAc | BABA G2gf | ec (3cdc BGEG |
AccB cAFG | Acfe fcAc | BABG Acdf | ecBG F2 :|
